rospo-icon-theme-classic-common/32x32/apps/com.github.keyilan.swatches.svg

<svg height="32" width="32" xmlns="http://www.w3.org/2000/svg"><path d="m2 22v6.9c0 1.1634.9506842 2.1 2.131579 2.1h22.736842c1.180895 0 1.875407-.964304 2.131579-2.1v-6.9z" opacity=".2"/><path d="m4.131579 2c-1.1808948 0-2.131579.9366-2.131579 2.1v17.57h27v-17.57c0-1.1634-.950684-2.1-2.131579-2.1z" fill="#ffbf3f"/><path d="m2 21v6.9c0 1.1634.9506842 2.1 2.131579 2.1h22.736842c1.180895 0 1.875407-.964304 2.131579-2.1v-6.9z" fill="#e4e4e4"/><rect fill="#4f4f4f" height="2" opacity=".6" rx="1" width="9" x="4" y="26"/><rect fill="#4f4f4f" height="2" rx="1" width="19" x="4" y="23"/><path d="m4.1308594 2c-1.1808948 0-2.1308594.9362094-2.1308594 2.0996094v1c0-1.1634.9499646-2.0996094 2.1308594-2.0996094h22.7382816c1.180895 0 2.130859.9362094 2.130859 2.0996094v-1c0-1.1634-.949964-2.0996094-2.130859-2.0996094z" fill="#fff" opacity=".2"/><path d="m2 21v1h27v-1z" fill="#fff" opacity=".2"/><path d="m2 20v1h27v-1z" opacity=".1"/></svg>

<svg xmlns="http://www.w3.org/2000/svg" width="32" height="32" version="1">
 <path d="m 2,22 0,6.9 C 2,30.0634 2.9506842,31 4.131579,31 l 22.736842,0 C 28.049316,31 28.743828,30.035696 29,28.9 L 29,22 Z" style="opacity:0.2"/>
 <path d="M 4.131579,2 C 2.9506842,2 2,2.9366 2,4.1 l 0,17.57 27,0 L 29,4.1 C 29,2.9366 28.049316,2 26.868421,2 Z" style="fill:#ffbf3f"/>
 <path style="fill:#cccccc" d="m 2,21 0,6.9 C 2,29.0634 2.9506842,30 4.131579,30 l 22.736842,0 C 28.049316,30 28.743828,29.035696 29,27.9 L 29,21 Z"/>
 <rect width="9" height="2" x="4" y="26" rx="1" ry="1" style="opacity:0.6;fill:#4f4f4f"/>
 <rect style="fill:#4f4f4f" width="19" height="2" x="4" y="23" rx="1" ry="1"/>
 <path style="fill:#ffffff;opacity:0.2" d="M 4.1308594 2 C 2.9499646 2 2 2.9362094 2 4.0996094 L 2 5.0996094 C 2 3.9362094 2.9499646 3 4.1308594 3 L 26.869141 3 C 28.050036 3 29 3.9362094 29 5.0996094 L 29 4.0996094 C 29 2.9362094 28.050036 2 26.869141 2 L 4.1308594 2 z"/>
 <path style="fill:#ffffff;opacity:0.2" d="M 2 21 L 2 22 L 29 22 L 29 21 L 2 21 z"/>
 <path d="m 2,20 0,1 27,0 0,-1 -27,0 z" style="opacity:0.1"/>
</svg>
